src/assets/icons/logo.svg

<svg fill="none" height="25" viewBox="0 0 24 25" width="24" xmlns="http://www.w3.org/2000/svg" xmlns:xlink="http://www.w3.org/1999/xlink"><mask id="a" height="2" maskUnits="userSpaceOnUse" width="2" x="11" y="19"><path clip-rule="evenodd" d="m11.4874 19.9449h1.0251v.2616h-1.0251z" fill="#000" fill-rule="evenodd"/></mask><mask id="b" height="1" maskUnits="userSpaceOnUse" width="4" x="3" y="19"><path clip-rule="evenodd" d="m3.42847 19.0981h3.43239v.6589h-3.43239z" fill="#000" fill-rule="evenodd"/></mask><mask id="c" height="2" maskUnits="userSpaceOnUse" width="2" x="5" y="4"><path clip-rule="evenodd" d="m5.7644 4.5h.59026v.98475h-.59026z" fill="#000" fill-rule="evenodd"/></mask><mask id="d" height="2" maskUnits="userSpaceOnUse" width="2" x="17" y="4"><path clip-rule="evenodd" d="m17.6454 4.5h.5902v.98475h-.5902z" fill="#000" fill-rule="evenodd"/></mask><path clip-rule="evenodd" d="m11.998 16.983-1.8448.3965.1433.2758 1.7034-.3654 1.7035.3654.1433-.2758z" fill="#000" fill-rule="evenodd"/><path clip-rule="evenodd" d="m3.84894 16.9147 3.59229-1.9039.05395-.3805-3.58144 1.8984z" fill="#000" fill-rule="evenodd"/><path clip-rule="evenodd" d="m12.0004 19.2569-.8447.0503.1478.2851.6969-.0417.6969.0417.1478-.2851z" fill="#000" fill-rule="evenodd"/><path clip-rule="evenodd" d="m3.94397 16.3454 3.61751-2.1849.05682-.3997-3.60602 2.1778z" fill="#000" fill-rule="evenodd"/><path clip-rule="evenodd" d="m10.4883 18.0246.1447.2781 1.3669-.2194 1.3673.2194.1446-.2781-1.51-.2424z" fill="#000" fill-rule="evenodd"/><g mask="url(#a)"><path clip-rule="evenodd" d="m11.4874 19.9449c.0709.1223.1909.2616.5133.2616.3225 0 .4409-.1393.5118-.2616z" fill="#000" fill-rule="evenodd"/></g><path clip-rule="evenodd" d="m12.002 18.5386-1.1792.1281.1458.2813 1.0315-.1121 1.0317.1121.1459-.2813z" fill="#000" fill-rule="evenodd"/><path clip-rule="evenodd" d="m3.76178 17.4344 3.56835-1.6419.05171-.3635-3.55845 1.6374z" fill="#000" fill-rule="evenodd"/><path clip-rule="evenodd" d="m3.84207 19.8778h2.54713c.2008 0 .36265-.1502.40159-.3107l-3.2488.1938c.0747.0733.17973.1169.30008.1169z" fill="#000" fill-rule="evenodd"/><path clip-rule="evenodd" d="m6.97274 4.71662c-.02682-.05413-.07789-.09801-.13408-.13389l-1.23989 1.89046-.13631.81486 1.58945-2.42377z" fill="#000" fill-rule="evenodd"/><path clip-rule="evenodd" d="m3.68182 17.91 3.54569-1.3965.0498-.3485-3.53611 1.3924z" fill="#000" fill-rule="evenodd"/><g mask="url(#b)"><path clip-rule="evenodd" d="m3.53737 19.757 3.28072-.3572.04278-.3017-3.43236.3735c-.00159.1169.03895.2149.10886.2854z" fill="#000" fill-rule="evenodd"/></g><path clip-rule="evenodd" d="m3.60931 18.3462 3.52398-1.1669.04788-.336-3.51503 1.1634z" fill="#000" fill-rule="evenodd"/><path clip-rule="evenodd" d="m3.43233 19.4012c-.00319.0199-.00255.0381-.00319.057l3.45949-.5551.04373-.3084-3.45789.5551z" fill="#000" fill-rule="evenodd"/><path clip-rule="evenodd" d="m3.54199 18.748 3.50387-.9507.04629-.3251-3.49525.9481z" fill="#000" fill-rule="evenodd"/><path clip-rule="evenodd" d="m3.47992 19.1177 3.48471-.7473.04469-.3162-3.47609.7457z" fill="#000" fill-rule="evenodd"/><path clip-rule="evenodd" d="m8.61758 7.78952-3.92876 4.11528-.09513.5683 4.18446-4.38345z" fill="#000" fill-rule="evenodd"/><path clip-rule="evenodd" d="m8.18171 6.97586-3.3069 3.81774-.10375.6179 3.57537-4.12782z" fill="#000" fill-rule="evenodd"/><path clip-rule="evenodd" d="m9.05235 8.60248-4.52923 4.29082-.08843.5269 4.77504-4.52368z" fill="#000" fill-rule="evenodd"/><path clip-rule="evenodd" d="m7.74606 6.16177-2.66046 3.37669-.113.67394 2.94265-3.7348z" fill="#000" fill-rule="evenodd"/><path clip-rule="evenodd" d="m9.48741 9.41452-5.11246 4.36328-.08204.4897 5.34869-4.5647z" fill="#000" fill-rule="evenodd"/><g mask="url(#c)"><path clip-rule="evenodd" d="m6.26017 4.49966c-.17271 0-.36712.15183-.38882.34658l-.10695.63837.59026-.98495z" fill="#000" fill-rule="evenodd"/></g><g clip-rule="evenodd" fill="#000" fill-rule="evenodd"><path d="m7.30958 5.34604-1.98529 2.76394-.12355.73895 2.2825-3.1781z"/><path d="m9.92097 10.2259-5.68005 4.3465-.07661.4584 5.90829-4.5215z"/><path d="m11.6541 13.4635-2.85387 1.3132.14238.2739 2.85739-1.3145z"/><path d="m12.0021 14.3035-2.8619 1.1275.14205.2729 2.71795-1.0705 2.7179 1.0705.1421-.2729z"/><path d="m9.47949 16.0827.14174.2736 2.37887-.7874 2.3792.7874.1418-.2736-2.5191-.8341z"/><path d="m10.3545 11.0365-6.23363 4.2531-.07247.4305 6.4558-4.4043z"/><path d="m11.2212 12.6549-2.76264 1.4644.14333.2758 2.76611-1.4664z"/><path d="m12.0017 16.1395-2.18511.5929.14269.2738 2.04052-.5535 2.0408.5535.1424-.2738z"/><path d="m10.7884 11.846-2.67231 1.6144.14461.278 2.6758-1.6163z"/><path d="m20.0866 16.5285-3.5814-1.8984.0539.3805 3.5923 1.9039z"/><path d="m19.9875 15.9389-3.606-2.1781.0568.3997 3.6175 2.1852z"/><path d="m20.1768 17.0661-3.5581-1.6371.0517.3632 3.5681 1.6419z"/><path d="m17.6101 19.8778h2.5472c.1203 0 .2257-.0436.3004-.1169l-3.2491-.1938c.0389.1605.2008.3107.4015.3107z"/><path d="m18.4015 6.47319-1.2399-1.89046c-.0562.03588-.1073.07976-.1341.13389l-.0791.14766 1.5897 2.42377z"/><path d="m20.2591 17.5575-3.5361-1.3927.0495.3485 3.546 1.3968z"/><path d="m17.139 19.0979.0428.3014 3.2807.3575c.0699-.0705.1105-.1688.1089-.2854z"/><path d="m20.3346 18.007-3.5154-1.1637.0482.3363 3.524 1.1669z"/><path d="m20.5678 19.4012-.0421-.2514-3.4579-.5551.0437.3084 3.4595.5551c-.0006-.0189 0-.0371-.0032-.057z"/><path d="m20.4035 18.4199-3.4952-.9482.0463.3255 3.5038.9503z"/><path d="m20.4671 18.7999-3.4761-.7457.0447.3162 3.4847.7473z"/><path d="m19.3113 11.9048-3.9288-4.11528-.1606.30045 4.1848 4.38313z"/><path d="m19.1252 10.7936-3.3069-3.81774-.1647.30782 3.5751 4.12782z"/><path d="m19.4771 12.8933-4.5292-4.29082-.1577.29404 4.775 4.52398z"/><path d="m18.915 9.53846-2.6604-3.37669-.1692.31583 2.9426 3.7348z"/><path d="m19.6256 13.778-5.1125-4.36324-.1542.28828 5.3491 4.56466z"/></g><g mask="url(#d)"><path clip-rule="evenodd" d="m18.1287 4.84624c-.0214-.19475-.2161-.34658-.3888-.34658h-.0945l.5902.98495z" fill="#000" fill-rule="evenodd"/></g><path clip-rule="evenodd" d="m18.6761 8.10998-1.9853-2.76394-.1736.32479 2.2828 3.1781z" fill="#000" fill-rule="evenodd"/><path clip-rule="evenodd" d="m19.7589 14.5724-5.6801-4.3465-.1516.2831 5.9083 4.5218z" fill="#000" fill-rule="evenodd"/><path clip-rule="evenodd" d="m12.2001 13.7358 2.8574 1.3146.1424-.2739-2.8539-1.3133z" fill="#000" fill-rule="evenodd"/><path clip-rule="evenodd" d="m19.8787 15.2898-6.2336-4.253-.1497.2793 6.4558 4.4042z" fill="#000" fill-rule="evenodd"/><path clip-rule="evenodd" d="m12.632 12.929 2.7661 1.466.1433-.2755-2.7626-1.4644z" fill="#000" fill-rule="evenodd"/><path clip-rule="evenodd" d="m13.0637 12.1224 2.6758 1.6163.1446-.2781-2.6723-1.6143z" fill="#000" fill-rule="evenodd"/></svg>

<svg width="24" height="25" viewBox="0 0 24 25" fill="none" xmlns="http://www.w3.org/2000/svg">
<path fill-rule="evenodd" clip-rule="evenodd" d="M11.998 16.983L10.1532 17.3795L10.2965 17.6553L11.9999 17.2899L13.7034 17.6553L13.8467 17.3795L11.998 16.983Z" fill="white"/>
<path fill-rule="evenodd" clip-rule="evenodd" d="M3.84894 16.9147L7.44123 15.0108L7.49518 14.6303L3.91374 16.5287L3.84894 16.9147Z" fill="white"/>
<path fill-rule="evenodd" clip-rule="evenodd" d="M12.0004 19.2569L11.1557 19.3072L11.3035 19.5923L12.0004 19.5506L12.6973 19.5923L12.8451 19.3072L12.0004 19.2569Z" fill="white"/>
<path fill-rule="evenodd" clip-rule="evenodd" d="M3.94397 16.3454L7.56148 14.1605L7.6183 13.7608L4.01228 15.9386L3.94397 16.3454Z" fill="white"/>
<path fill-rule="evenodd" clip-rule="evenodd" d="M10.4883 18.0246L10.633 18.3027L11.9999 18.0833L13.3672 18.3027L13.5118 18.0246L12.0018 17.7822L10.4883 18.0246Z" fill="white"/>
<mask id="mask0" mask-type="alpha" maskUnits="userSpaceOnUse" x="11" y="19" width="2" height="2">
<path fill-rule="evenodd" clip-rule="evenodd" d="M11.4874 19.9449H12.5125V20.2065H11.4874V19.9449Z" fill="white"/>
</mask>
<g mask="url(#mask0)">
<path fill-rule="evenodd" clip-rule="evenodd" d="M11.4874 19.9449C11.5583 20.0672 11.6783 20.2065 12.0007 20.2065C12.3232 20.2065 12.4416 20.0672 12.5125 19.9449H11.4874Z" fill="white"/>
</g>
<path fill-rule="evenodd" clip-rule="evenodd" d="M12.002 18.5386L10.8228 18.6667L10.9686 18.948L12.0001 18.8359L13.0318 18.948L13.1777 18.6667L12.002 18.5386Z" fill="white"/>
<path fill-rule="evenodd" clip-rule="evenodd" d="M3.76178 17.4344L7.33013 15.7925L7.38184 15.429L3.82339 17.0664L3.76178 17.4344Z" fill="white"/>
<path fill-rule="evenodd" clip-rule="evenodd" d="M3.84207 19.8778H6.3892C6.59 19.8778 6.75185 19.7276 6.79079 19.5671L3.54199 19.7609C3.61669 19.8342 3.72172 19.8778 3.84207 19.8778Z" fill="white"/>
<path fill-rule="evenodd" clip-rule="evenodd" d="M6.97274 4.71662C6.94592 4.66249 6.89485 4.61861 6.83866 4.58273L5.59877 6.47319L5.46246 7.28805L7.05191 4.86428L6.97274 4.71662Z" fill="white"/>
<path fill-rule="evenodd" clip-rule="evenodd" d="M3.68182 17.91L7.22751 16.5135L7.27731 16.165L3.7412 17.5574L3.68182 17.91Z" fill="white"/>
<mask id="mask1" mask-type="alpha" maskUnits="userSpaceOnUse" x="3" y="19" width="4" height="1">
<path fill-rule="evenodd" clip-rule="evenodd" d="M3.42847 19.0981H6.86086V19.757H3.42847V19.0981Z" fill="white"/>
</mask>
<g mask="url(#mask1)">
<path fill-rule="evenodd" clip-rule="evenodd" d="M3.53737 19.757L6.81809 19.3998L6.86087 19.0981L3.42851 19.4716C3.42692 19.5885 3.46746 19.6865 3.53737 19.757Z" fill="white"/>
</g>
<path fill-rule="evenodd" clip-rule="evenodd" d="M3.60931 18.3462L7.13329 17.1793L7.18117 16.8433L3.66614 18.0067L3.60931 18.3462Z" fill="white"/>
<path fill-rule="evenodd" clip-rule="evenodd" d="M3.43233 19.4012C3.42914 19.4211 3.42978 19.4393 3.42914 19.4582L6.88863 18.9031L6.93236 18.5947L3.47447 19.1498L3.43233 19.4012Z" fill="white"/>
<path fill-rule="evenodd" clip-rule="evenodd" d="M3.54199 18.748L7.04586 17.7973L7.09215 17.4722L3.5969 18.4203L3.54199 18.748Z" fill="white"/>
<path fill-rule="evenodd" clip-rule="evenodd" d="M3.47992 19.1177L6.96463 18.3704L7.00932 18.0542L3.53323 18.7999L3.47992 19.1177Z" fill="white"/>
<path fill-rule="evenodd" clip-rule="evenodd" d="M8.61758 7.78952L4.68882 11.9048L4.59369 12.4731L8.77815 8.08965L8.61758 7.78952Z" fill="white"/>
<path fill-rule="evenodd" clip-rule="evenodd" d="M8.18171 6.97586L4.87481 10.7936L4.77106 11.4115L8.34643 7.28368L8.18171 6.97586Z" fill="white"/>
<path fill-rule="evenodd" clip-rule="evenodd" d="M9.05235 8.60248L4.52312 12.8933L4.43469 13.4202L9.20973 8.89652L9.05235 8.60248Z" fill="white"/>
<path fill-rule="evenodd" clip-rule="evenodd" d="M7.74606 6.16177L5.0856 9.53846L4.9726 10.2124L7.91525 6.4776L7.74606 6.16177Z" fill="white"/>
<path fill-rule="evenodd" clip-rule="evenodd" d="M9.48741 9.41452L4.37495 13.7778L4.29291 14.2675L9.6416 9.7028L9.48741 9.41452Z" fill="white"/>
<mask id="mask2" mask-type="alpha" maskUnits="userSpaceOnUse" x="5" y="4" width="2" height="2">
<path fill-rule="evenodd" clip-rule="evenodd" d="M5.7644 4.5H6.35466V5.48475H5.7644V4.5Z" fill="white"/>
</mask>
<g mask="url(#mask2)">
<path fill-rule="evenodd" clip-rule="evenodd" d="M6.26017 4.49966C6.08746 4.49966 5.89305 4.65149 5.87135 4.84624L5.7644 5.48461L6.35466 4.49966H6.26017Z" fill="white"/>
</g>
<path fill-rule="evenodd" clip-rule="evenodd" d="M7.30958 5.34604L5.32429 8.10998L5.20074 8.84893L7.48324 5.67083L7.30958 5.34604Z" fill="white"/>
<path fill-rule="evenodd" clip-rule="evenodd" d="M9.92097 10.2259L4.24092 14.5724L4.16431 15.0308L10.0726 10.5093L9.92097 10.2259Z" fill="white"/>
<path fill-rule="evenodd" clip-rule="evenodd" d="M11.6541 13.4635L8.80023 14.7767L8.94261 15.0506L11.8 13.7361L11.6541 13.4635Z" fill="white"/>
<path fill-rule="evenodd" clip-rule="evenodd" d="M12.0021 14.3035L9.1402 15.431L9.28225 15.7039L12.0002 14.6334L14.7181 15.7039L14.8602 15.431L12.0021 14.3035Z" fill="white"/>
<path fill-rule="evenodd" clip-rule="evenodd" d="M9.47949 16.0827L9.62123 16.3563L12.0001 15.5689L14.3793 16.3563L14.5211 16.0827L12.002 15.2486L9.47949 16.0827Z" fill="white"/>
<path fill-rule="evenodd" clip-rule="evenodd" d="M10.3545 11.0365L4.12087 15.2896L4.0484 15.7201L10.5042 11.3158L10.3545 11.0365Z" fill="white"/>
<path fill-rule="evenodd" clip-rule="evenodd" d="M11.2212 12.6549L8.45856 14.1193L8.60189 14.3951L11.368 12.9287L11.2212 12.6549Z" fill="white"/>
<path fill-rule="evenodd" clip-rule="evenodd" d="M12.0017 16.1395L9.81659 16.7324L9.95928 17.0062L11.9998 16.4527L14.0406 17.0062L14.183 16.7324L12.0017 16.1395Z" fill="white"/>
<path fill-rule="evenodd" clip-rule="evenodd" d="M10.7884 11.846L8.11609 13.4604L8.2607 13.7384L10.9365 12.1221L10.7884 11.846Z" fill="white"/>
<path fill-rule="evenodd" clip-rule="evenodd" d="M20.0866 16.5285L16.5052 14.6301L16.5591 15.0106L20.1514 16.9145L20.0866 16.5285Z" fill="white"/>
<path fill-rule="evenodd" clip-rule="evenodd" d="M19.9875 15.9389L16.3815 13.7608L16.4383 14.1605L20.0558 16.3457L19.9875 15.9389Z" fill="white"/>
<path fill-rule="evenodd" clip-rule="evenodd" d="M20.1768 17.0661L16.6187 15.429L16.6704 15.7922L20.2385 17.4341L20.1768 17.0661Z" fill="white"/>
<path fill-rule="evenodd" clip-rule="evenodd" d="M17.6101 19.8778H20.1573C20.2776 19.8778 20.383 19.8342 20.4577 19.7609L17.2086 19.5671C17.2475 19.7276 17.4094 19.8778 17.6101 19.8778Z" fill="white"/>
<path fill-rule="evenodd" clip-rule="evenodd" d="M18.4015 6.47319L17.1616 4.58273C17.1054 4.61861 17.0543 4.66249 17.0275 4.71662L16.9484 4.86428L18.5381 7.28805L18.4015 6.47319Z" fill="white"/>
<path fill-rule="evenodd" clip-rule="evenodd" d="M20.2591 17.5575L16.723 16.1648L16.7725 16.5133L20.3185 17.9101L20.2591 17.5575Z" fill="white"/>
<path fill-rule="evenodd" clip-rule="evenodd" d="M17.139 19.0979L17.1818 19.3993L20.4625 19.7568C20.5324 19.6863 20.573 19.588 20.5714 19.4714L17.139 19.0979Z" fill="white"/>
<path fill-rule="evenodd" clip-rule="evenodd" d="M20.3346 18.007L16.8192 16.8433L16.8674 17.1796L20.3914 18.3465L20.3346 18.007Z" fill="white"/>
<path fill-rule="evenodd" clip-rule="evenodd" d="M20.5678 19.4012L20.5257 19.1498L17.0678 18.5947L17.1115 18.9031L20.571 19.4582C20.5704 19.4393 20.571 19.4211 20.5678 19.4012Z" fill="white"/>
<path fill-rule="evenodd" clip-rule="evenodd" d="M20.4035 18.4199L16.9083 17.4717L16.9546 17.7972L20.4584 18.7475L20.4035 18.4199Z" fill="white"/>
<path fill-rule="evenodd" clip-rule="evenodd" d="M20.4671 18.7999L16.991 18.0542L17.0357 18.3704L20.5204 19.1177L20.4671 18.7999Z" fill="white"/>
<path fill-rule="evenodd" clip-rule="evenodd" d="M19.3113 11.9048L15.3825 7.78952L15.2219 8.08997L19.4067 12.4731L19.3113 11.9048Z" fill="white"/>
<path fill-rule="evenodd" clip-rule="evenodd" d="M19.1252 10.7936L15.8183 6.97586L15.6536 7.28368L19.2287 11.4115L19.1252 10.7936Z" fill="white"/>
<path fill-rule="evenodd" clip-rule="evenodd" d="M19.4771 12.8933L14.9479 8.60248L14.7902 8.89652L19.5652 13.4205L19.4771 12.8933Z" fill="white"/>
<path fill-rule="evenodd" clip-rule="evenodd" d="M18.915 9.53846L16.2546 6.16177L16.0854 6.4776L19.028 10.2124L18.915 9.53846Z" fill="white"/>
<path fill-rule="evenodd" clip-rule="evenodd" d="M19.6256 13.778L14.5131 9.41476L14.3589 9.70304L19.708 14.2677L19.6256 13.778Z" fill="white"/>
<mask id="mask3" mask-type="alpha" maskUnits="userSpaceOnUse" x="17" y="4" width="2" height="2">
<path fill-rule="evenodd" clip-rule="evenodd" d="M17.6454 4.5H18.2356V5.48475H17.6454V4.5Z" fill="white"/>
</mask>
<g mask="url(#mask3)">
<path fill-rule="evenodd" clip-rule="evenodd" d="M18.1287 4.84624C18.1073 4.65149 17.9126 4.49966 17.7399 4.49966H17.6454L18.2356 5.48461L18.1287 4.84624Z" fill="white"/>
</g>
<path fill-rule="evenodd" clip-rule="evenodd" d="M18.6761 8.10998L16.6908 5.34604L16.5172 5.67083L18.8 8.84893L18.6761 8.10998Z" fill="white"/>
<path fill-rule="evenodd" clip-rule="evenodd" d="M19.7589 14.5724L14.0788 10.2259L13.9272 10.509L19.8355 15.0308L19.7589 14.5724Z" fill="white"/>
<path fill-rule="evenodd" clip-rule="evenodd" d="M12.2001 13.7358L15.0575 15.0504L15.1999 14.7765L12.346 13.4632L12.2001 13.7358Z" fill="white"/>
<path fill-rule="evenodd" clip-rule="evenodd" d="M19.8787 15.2898L13.6451 11.0368L13.4954 11.3161L19.9512 15.7203L19.8787 15.2898Z" fill="white"/>
<path fill-rule="evenodd" clip-rule="evenodd" d="M12.632 12.929L15.3981 14.395L15.5414 14.1195L12.7788 12.6551L12.632 12.929Z" fill="white"/>
<path fill-rule="evenodd" clip-rule="evenodd" d="M13.0637 12.1224L15.7395 13.7387L15.8841 13.4606L13.2118 11.8463L13.0637 12.1224Z" fill="white"/>
</svg>
